src/img/github.svg

<svg enable-background="new 0 0 19.2 19.2" viewBox="0 0 19.2 19.2" xmlns="http://www.w3.org/2000/svg"><path d="m9.7.1c-5.3 0-9.6 4.2-9.7 9.5 0 4.5 3 8.4 7.4 9.4.1 0 .2 0 .3-.1s.1-.2.1-.3v-2.3c0-.1-.1-.2-.1-.3 0 0-.1 0-.3 0h-.6c-1 0-1.7-1-2.2-1.8-.1-.1-.2-.3-.3-.4.4.2.7.5 1 .8.4.5 1 .8 1.7.9.3 0 1-.3 1-1.3v-.3c0-.2-.1-.3-.3-.3-2.3-.7-3.7-2.4-3.7-4.4 0-1.1.5-2.1 1.2-2.8v-.4c-.2-.7-.1-1.5.4-2 .5.3.9.7 1.3 1.1.1.1.3.1.4 0l.2-.1c.7-.2 1.5-.4 2.3-.5.8.1 1.6.3 2.3.6l.2.1c.1 0 .3 0 .4-.1.3-.5.7-.8 1.2-1.1.5.5.7 1.3.4 2-.3.1-.3.3-.2.4.7.7 1.2 1.7 1.2 2.7-.1 2.2-1.7 4.1-3.9 4.5-.1 0-.2.1-.2.2 0 .1-.1.2 0 .3.2.6.3 1.2.3 1.8v2.9c0 .1 0 .2.1.3.1 0 .1.1.2.1h.1c4.3-1.1 7.2-5 7.3-9.4 0-5.4-4.3-9.7-9.5-9.7z"/></svg>

<?xml version="1.0" encoding="utf-8"?>
<!-- Generator: Adobe Illustrator 22.0.1, SVG Export Plug-In . SVG Version: 6.00 Build 0)  -->
<svg version="1.1" id="Layer_1" xmlns="http://www.w3.org/2000/svg" xmlns:xlink="http://www.w3.org/1999/xlink" x="0px" y="0px"
	 viewBox="0 0 19.2 19.2" style="enable-background:new 0 0 19.2 19.2;" xml:space="preserve">
<path d="M9.7,0.1C4.4,0.1,0.1,4.3,0,9.6c0,4.5,3,8.4,7.4,9.4c0.1,0,0.2,0,0.3-0.1c0.1-0.1,0.1-0.2,0.1-0.3v-2.3
	c0-0.1-0.1-0.2-0.1-0.3C7.7,16,7.6,16,7.4,16H6.8c-1,0-1.7-1-2.2-1.8c-0.1-0.1-0.2-0.3-0.3-0.4c0.4,0.2,0.7,0.5,1,0.8
	c0.4,0.5,1,0.8,1.7,0.9c0.3,0,1-0.3,1-1.3v-0.3c0-0.2-0.1-0.3-0.3-0.3C5.4,12.9,4,11.2,4,9.2c0-1.1,0.5-2.1,1.2-2.8V6
	C5,5.3,5.1,4.5,5.6,4c0.5,0.3,0.9,0.7,1.3,1.1C7,5.2,7.2,5.2,7.3,5.1l0.2-0.1C8.2,4.8,9,4.6,9.8,4.5c0.8,0.1,1.6,0.3,2.3,0.6
	l0.2,0.1c0.1,0,0.3,0,0.4-0.1C13,4.6,13.4,4.3,13.9,4c0.5,0.5,0.7,1.3,0.4,2c-0.3,0.1-0.3,0.3-0.2,0.4c0.7,0.7,1.2,1.7,1.2,2.7
	c-0.1,2.2-1.7,4.1-3.9,4.5c-0.1,0-0.2,0.1-0.2,0.2c0,0,0,0,0,0c0,0.1-0.1,0.2,0,0.3c0.2,0.6,0.3,1.2,0.3,1.8v2.9
	c0,0.1,0,0.2,0.1,0.3c0.1,0,0.1,0.1,0.2,0.1h0.1c4.3-1.1,7.2-5,7.3-9.4C19.2,4.4,14.9,0.1,9.7,0.1z"/>
</svg>
